images/171938.svg

<?xml version="1.0" encoding="UTF-8"?>
<svg xmlns="http://www.w3.org/2000/svg" xmlns:xlink="http://www.w3.org/1999/xlink" width="300pt" height="300pt" viewBox="0 0 300 300" version="1.1">
<defs>
<g>
<symbol overflow="visible" id="glyph0-0">
<path style="stroke:none;" d="M 0.453125 1.59375 L 0.453125 -6.34375 L 4.953125 -6.34375 L 4.953125 1.59375 Z M 0.953125 1.09375 L 4.453125 1.09375 L 4.453125 -5.84375 L 0.953125 -5.84375 Z M 0.953125 1.09375 "/>
</symbol>
<symbol overflow="visible" id="glyph0-1">
<path style="stroke:none;" d="M 3.546875 -5.953125 C 2.898438 -5.953125 2.382812 -5.710938 2 -5.234375 C 1.625 -4.753906 1.4375 -4.101562 1.4375 -3.28125 C 1.4375 -2.445312 1.625 -1.789062 2 -1.3125 C 2.382812 -0.832031 2.898438 -0.59375 3.546875 -0.59375 C 4.191406 -0.59375 4.703125 -0.832031 5.078125 -1.3125 C 5.453125 -1.789062 5.640625 -2.445312 5.640625 -3.28125 C 5.640625 -4.101562 5.453125 -4.753906 5.078125 -5.234375 C 4.703125 -5.710938 4.191406 -5.953125 3.546875 -5.953125 Z M 3.546875 -6.6875 C 4.460938 -6.6875 5.195312 -6.375 5.75 -5.75 C 6.300781 -5.132812 6.578125 -4.3125 6.578125 -3.28125 C 6.578125 -2.238281 6.300781 -1.410156 5.75 -0.796875 C 5.195312 -0.179688 4.460938 0.125 3.546875 0.125 C 2.617188 0.125 1.878906 -0.179688 1.328125 -0.796875 C 0.773438 -1.410156 0.5 -2.238281 0.5 -3.28125 C 0.5 -4.3125 0.773438 -5.132812 1.328125 -5.75 C 1.878906 -6.375 2.617188 -6.6875 3.546875 -6.6875 Z M 3.546875 -6.6875 "/>
</symbol>
<symbol overflow="visible" id="glyph0-2">
<path style="stroke:none;" d="M 0.890625 -6.5625 L 1.765625 -6.5625 L 1.765625 -3.875 L 5 -3.875 L 5 -6.5625 L 5.890625 -6.5625 L 5.890625 0 L 5 0 L 5 -3.125 L 1.765625 -3.125 L 1.765625 0 L 0.890625 0 Z M 0.890625 -6.5625 "/>
</symbol>
</g>
</defs>
<g id="surface15385">
<rect x="0" y="0" width="300" height="300" style="fill:rgb(100%,100%,100%);fill-opacity:1;stroke:none;"/>
<path style="fill:none;stroke-width:1.2;stroke-linecap:butt;stroke-linejoin:miter;stroke:rgb(100%,0%,0%);stroke-opacity:1;stroke-miterlimit:10;" d="M 108.800781 151.359375 L 101.890625 142.097656 "/>
<path style="fill:none;stroke-width:1.2;stroke-linecap:butt;stroke-linejoin:miter;stroke:rgb(0%,0%,0%);stroke-opacity:1;stroke-miterlimit:10;" d="M 101.890625 142.097656 L 94.976562 132.839844 "/>
<path style="fill:none;stroke-width:1.2;stroke-linecap:butt;stroke-linejoin:miter;stroke:rgb(0%,0%,0%);stroke-opacity:1;stroke-miterlimit:10;" d="M 131.753906 148.640625 L 120.277344 150 "/>
<path style="fill:none;stroke-width:1.2;stroke-linecap:butt;stroke-linejoin:miter;stroke:rgb(100%,0%,0%);stroke-opacity:1;stroke-miterlimit:10;" d="M 120.277344 150 L 108.800781 151.359375 "/>
<path style=" stroke:none;fill-rule:nonzero;fill:rgb(100%,100%,100%);fill-opacity:1;" d="M 104.800781 145.859375 L 112.800781 145.859375 L 112.800781 156.859375 L 104.800781 156.859375 Z M 104.800781 145.859375 "/>
<g style="fill:rgb(100%,0%,0%);fill-opacity:1;">
  <use xlink:href="#glyph0-1" x="104.800781" y="154.522461"/>
</g>
<path style="fill:none;stroke-width:1.2;stroke-linecap:butt;stroke-linejoin:miter;stroke:rgb(0%,0%,0%);stroke-opacity:1;stroke-miterlimit:10;" d="M 94.976562 132.839844 L 104.101562 111.605469 "/>
<path style="fill:none;stroke-width:1.2;stroke-linecap:butt;stroke-linejoin:miter;stroke:rgb(0%,0%,0%);stroke-opacity:1;stroke-miterlimit:10;" d="M 90.894531 128.570312 L 98.191406 111.582031 "/>
<path style="fill:none;stroke-width:1.2;stroke-linecap:butt;stroke-linejoin:miter;stroke:rgb(0%,0%,0%);stroke-opacity:1;stroke-miterlimit:10;" d="M 72.027344 135.554688 L 94.976562 132.839844 "/>
<path style="fill:none;stroke-width:1.2;stroke-linecap:butt;stroke-linejoin:miter;stroke:rgb(0%,0%,0%);stroke-opacity:1;stroke-miterlimit:10;" d="M 104.101562 111.605469 L 127.050781 108.890625 "/>
<path style="fill:none;stroke-width:1.2;stroke-linecap:butt;stroke-linejoin:miter;stroke:rgb(0%,0%,0%);stroke-opacity:1;stroke-miterlimit:10;" d="M 104.101562 111.605469 L 90.273438 93.089844 "/>
<path style="fill:none;stroke-width:1.2;stroke-linecap:butt;stroke-linejoin:miter;stroke:rgb(0%,0%,0%);stroke-opacity:1;stroke-miterlimit:10;" d="M 127.050781 108.890625 L 140.875 127.410156 "/>
<path style="fill:none;stroke-width:1.2;stroke-linecap:butt;stroke-linejoin:miter;stroke:rgb(0%,0%,0%);stroke-opacity:1;stroke-miterlimit:10;" d="M 140.875 127.410156 L 152.351562 126.050781 "/>
<path style="fill:none;stroke-width:1.2;stroke-linecap:butt;stroke-linejoin:miter;stroke:rgb(100%,0%,0%);stroke-opacity:1;stroke-miterlimit:10;" d="M 152.351562 126.050781 L 163.828125 124.695312 "/>
<path style="fill:none;stroke-width:1.2;stroke-linecap:butt;stroke-linejoin:miter;stroke:rgb(0%,0%,0%);stroke-opacity:1;stroke-miterlimit:10;" d="M 140.875 127.410156 L 131.753906 148.640625 "/>
<path style="fill:none;stroke-width:1.2;stroke-linecap:butt;stroke-linejoin:miter;stroke:rgb(100%,0%,0%);stroke-opacity:1;stroke-miterlimit:10;" d="M 163.828125 124.695312 L 168.386719 114.078125 "/>
<path style="fill:none;stroke-width:1.2;stroke-linecap:butt;stroke-linejoin:miter;stroke:rgb(0%,0%,0%);stroke-opacity:1;stroke-miterlimit:10;" d="M 168.386719 114.078125 L 172.949219 103.460938 "/>
<path style=" stroke:none;fill-rule:nonzero;fill:rgb(100%,100%,100%);fill-opacity:1;" d="M 159.828125 119.195312 L 167.828125 119.195312 L 167.828125 130.195312 L 159.828125 130.195312 Z M 159.828125 119.195312 "/>
<g style="fill:rgb(100%,0%,0%);fill-opacity:1;">
  <use xlink:href="#glyph0-1" x="159.828125" y="127.858398"/>
</g>
<path style="fill:none;stroke-width:1.2;stroke-linecap:butt;stroke-linejoin:miter;stroke:rgb(0%,0%,0%);stroke-opacity:1;stroke-miterlimit:10;" d="M 175.128906 101.835938 L 168.214844 92.578125 "/>
<path style="fill:none;stroke-width:1.2;stroke-linecap:butt;stroke-linejoin:miter;stroke:rgb(100%,0%,0%);stroke-opacity:1;stroke-miterlimit:10;" d="M 168.214844 92.578125 L 161.300781 83.316406 "/>
<path style="fill:none;stroke-width:1.2;stroke-linecap:butt;stroke-linejoin:miter;stroke:rgb(0%,0%,0%);stroke-opacity:1;stroke-miterlimit:10;" d="M 170.769531 105.089844 L 163.859375 95.828125 "/>
<path style="fill:none;stroke-width:1.2;stroke-linecap:butt;stroke-linejoin:miter;stroke:rgb(100%,0%,0%);stroke-opacity:1;stroke-miterlimit:10;" d="M 163.859375 95.828125 L 156.945312 86.570312 "/>
<path style="fill:none;stroke-width:1.2;stroke-linecap:butt;stroke-linejoin:miter;stroke:rgb(0%,0%,0%);stroke-opacity:1;stroke-miterlimit:10;" d="M 172.949219 103.460938 L 195.898438 100.746094 "/>
<path style=" stroke:none;fill-rule:nonzero;fill:rgb(100%,100%,100%);fill-opacity:1;" d="M 151.125 79.445312 L 159.125 79.445312 L 159.125 90.445312 L 151.125 90.445312 Z M 151.125 79.445312 "/>
<g style="fill:rgb(100%,0%,0%);fill-opacity:1;">
  <use xlink:href="#glyph0-1" x="151.125" y="88.108398"/>
</g>
<path style="fill:none;stroke-width:1.2;stroke-linecap:butt;stroke-linejoin:miter;stroke:rgb(0%,0%,0%);stroke-opacity:1;stroke-miterlimit:10;" d="M 195.898438 100.746094 L 205.023438 79.515625 "/>
<path style="fill:none;stroke-width:1.2;stroke-linecap:butt;stroke-linejoin:miter;stroke:rgb(0%,0%,0%);stroke-opacity:1;stroke-miterlimit:10;" d="M 201.808594 100.769531 L 209.105469 83.785156 "/>
<path style="fill:none;stroke-width:1.2;stroke-linecap:butt;stroke-linejoin:miter;stroke:rgb(0%,0%,0%);stroke-opacity:1;stroke-miterlimit:10;" d="M 209.726562 119.265625 L 195.898438 100.746094 "/>
<path style="fill:none;stroke-width:1.2;stroke-linecap:butt;stroke-linejoin:miter;stroke:rgb(0%,0%,0%);stroke-opacity:1;stroke-miterlimit:10;" d="M 205.023438 79.515625 L 227.972656 76.796875 "/>
<path style="fill:none;stroke-width:1.2;stroke-linecap:butt;stroke-linejoin:miter;stroke:rgb(0%,0%,0%);stroke-opacity:1;stroke-miterlimit:10;" d="M 227.972656 76.796875 L 241.800781 95.316406 "/>
<path style="fill:none;stroke-width:1.2;stroke-linecap:butt;stroke-linejoin:miter;stroke:rgb(0%,0%,0%);stroke-opacity:1;stroke-miterlimit:10;" d="M 225 81.902344 L 236.058594 96.71875 "/>
<path style="fill:none;stroke-width:1.2;stroke-linecap:butt;stroke-linejoin:miter;stroke:rgb(0%,0%,0%);stroke-opacity:1;stroke-miterlimit:10;" d="M 241.800781 95.316406 L 253.273438 93.960938 "/>
<path style="fill:none;stroke-width:1.2;stroke-linecap:butt;stroke-linejoin:miter;stroke:rgb(100%,0%,0%);stroke-opacity:1;stroke-miterlimit:10;" d="M 253.273438 93.960938 L 264.75 92.601562 "/>
<path style="fill:none;stroke-width:1.2;stroke-linecap:butt;stroke-linejoin:miter;stroke:rgb(0%,0%,0%);stroke-opacity:1;stroke-miterlimit:10;" d="M 241.800781 95.316406 L 232.675781 116.550781 "/>
<path style=" stroke:none;fill-rule:nonzero;fill:rgb(100%,100%,100%);fill-opacity:1;" d="M 257.75 87.101562 L 272.75 87.101562 L 272.75 98.101562 L 257.75 98.101562 Z M 257.75 87.101562 "/>
<g style="fill:rgb(100%,0%,0%);fill-opacity:1;">
  <use xlink:href="#glyph0-1" x="257.75" y="95.764648"/>
  <use xlink:href="#glyph0-2" x="265.091797" y="95.764648"/>
</g>
<path style="fill:none;stroke-width:1.2;stroke-linecap:butt;stroke-linejoin:miter;stroke:rgb(0%,0%,0%);stroke-opacity:1;stroke-miterlimit:10;" d="M 232.675781 116.550781 L 239.589844 125.808594 "/>
<path style="fill:none;stroke-width:1.2;stroke-linecap:butt;stroke-linejoin:miter;stroke:rgb(100%,0%,0%);stroke-opacity:1;stroke-miterlimit:10;" d="M 239.589844 125.808594 L 246.503906 135.066406 "/>
<path style="fill:none;stroke-width:1.2;stroke-linecap:butt;stroke-linejoin:miter;stroke:rgb(0%,0%,0%);stroke-opacity:1;stroke-miterlimit:10;" d="M 232.675781 116.550781 L 209.726562 119.265625 "/>
<path style="fill:none;stroke-width:1.2;stroke-linecap:butt;stroke-linejoin:miter;stroke:rgb(0%,0%,0%);stroke-opacity:1;stroke-miterlimit:10;" d="M 229.742188 111.421875 L 211.382812 113.59375 "/>
<path style=" stroke:none;fill-rule:nonzero;fill:rgb(100%,100%,100%);fill-opacity:1;" d="M 239.503906 129.566406 L 254.503906 129.566406 L 254.503906 140.566406 L 239.503906 140.566406 Z M 239.503906 129.566406 "/>
<g style="fill:rgb(100%,0%,0%);fill-opacity:1;">
  <use xlink:href="#glyph0-1" x="239.503906" y="138.229492"/>
  <use xlink:href="#glyph0-2" x="246.845703" y="138.229492"/>
</g>
<path style="fill:none;stroke-width:1.2;stroke-linecap:butt;stroke-linejoin:miter;stroke:rgb(0%,0%,0%);stroke-opacity:1;stroke-miterlimit:10;" d="M 209.726562 119.265625 L 205.164062 129.882812 "/>
<path style="fill:none;stroke-width:1.2;stroke-linecap:butt;stroke-linejoin:miter;stroke:rgb(100%,0%,0%);stroke-opacity:1;stroke-miterlimit:10;" d="M 205.164062 129.882812 L 200.601562 140.496094 "/>
<path style=" stroke:none;fill-rule:nonzero;fill:rgb(100%,100%,100%);fill-opacity:1;" d="M 185.601562 134.996094 L 200.601562 134.996094 L 200.601562 145.996094 L 185.601562 145.996094 Z M 185.601562 134.996094 "/>
<g style="fill:rgb(100%,0%,0%);fill-opacity:1;">
  <use xlink:href="#glyph0-2" x="185.601562" y="143.65918"/>
  <use xlink:href="#glyph0-1" x="192.616211" y="143.65918"/>
</g>
<path style="fill:none;stroke-width:1.2;stroke-linecap:butt;stroke-linejoin:miter;stroke:rgb(0%,0%,0%);stroke-opacity:1;stroke-miterlimit:10;" d="M 131.753906 148.640625 L 145.578125 167.160156 "/>
<path style="fill:none;stroke-width:1.2;stroke-linecap:butt;stroke-linejoin:miter;stroke:rgb(0%,0%,0%);stroke-opacity:1;stroke-miterlimit:10;" d="M 145.578125 167.160156 L 136.457031 188.394531 "/>
<path style="fill:none;stroke-width:1.2;stroke-linecap:butt;stroke-linejoin:miter;stroke:rgb(0%,0%,0%);stroke-opacity:1;stroke-miterlimit:10;" d="M 149.664062 171.429688 L 142.363281 188.417969 "/>
<path style="fill:none;stroke-width:1.2;stroke-linecap:butt;stroke-linejoin:miter;stroke:rgb(0%,0%,0%);stroke-opacity:1;stroke-miterlimit:10;" d="M 168.527344 164.445312 L 145.578125 167.160156 "/>
<path style="fill:none;stroke-width:1.2;stroke-linecap:butt;stroke-linejoin:miter;stroke:rgb(0%,0%,0%);stroke-opacity:1;stroke-miterlimit:10;" d="M 136.457031 188.394531 L 150.28125 206.910156 "/>
<path style="fill:none;stroke-width:1.2;stroke-linecap:butt;stroke-linejoin:miter;stroke:rgb(0%,0%,0%);stroke-opacity:1;stroke-miterlimit:10;" d="M 150.28125 206.910156 L 145.71875 217.527344 "/>
<path style="fill:none;stroke-width:1.2;stroke-linecap:butt;stroke-linejoin:miter;stroke:rgb(100%,0%,0%);stroke-opacity:1;stroke-miterlimit:10;" d="M 145.71875 217.527344 L 141.15625 228.144531 "/>
<path style="fill:none;stroke-width:1.2;stroke-linecap:butt;stroke-linejoin:miter;stroke:rgb(0%,0%,0%);stroke-opacity:1;stroke-miterlimit:10;" d="M 150.28125 206.910156 L 173.230469 204.195312 "/>
<path style="fill:none;stroke-width:1.2;stroke-linecap:butt;stroke-linejoin:miter;stroke:rgb(0%,0%,0%);stroke-opacity:1;stroke-miterlimit:10;" d="M 151.9375 201.238281 L 170.296875 199.066406 "/>
<path style=" stroke:none;fill-rule:nonzero;fill:rgb(100%,100%,100%);fill-opacity:1;" d="M 126.15625 222.644531 L 141.15625 222.644531 L 141.15625 233.644531 L 126.15625 233.644531 Z M 126.15625 222.644531 "/>
<g style="fill:rgb(100%,0%,0%);fill-opacity:1;">
  <use xlink:href="#glyph0-2" x="126.15625" y="231.307617"/>
  <use xlink:href="#glyph0-1" x="133.170898" y="231.307617"/>
</g>
<path style="fill:none;stroke-width:1.2;stroke-linecap:butt;stroke-linejoin:miter;stroke:rgb(0%,0%,0%);stroke-opacity:1;stroke-miterlimit:10;" d="M 173.230469 204.195312 L 180.144531 213.453125 "/>
<path style="fill:none;stroke-width:1.2;stroke-linecap:butt;stroke-linejoin:miter;stroke:rgb(100%,0%,0%);stroke-opacity:1;stroke-miterlimit:10;" d="M 180.144531 213.453125 L 187.058594 222.714844 "/>
<path style="fill:none;stroke-width:1.2;stroke-linecap:butt;stroke-linejoin:miter;stroke:rgb(0%,0%,0%);stroke-opacity:1;stroke-miterlimit:10;" d="M 173.230469 204.195312 L 182.355469 182.964844 "/>
<path style=" stroke:none;fill-rule:nonzero;fill:rgb(100%,100%,100%);fill-opacity:1;" d="M 180.058594 217.214844 L 195.058594 217.214844 L 195.058594 228.214844 L 180.058594 228.214844 Z M 180.058594 217.214844 "/>
<g style="fill:rgb(100%,0%,0%);fill-opacity:1;">
  <use xlink:href="#glyph0-1" x="180.058594" y="225.87793"/>
  <use xlink:href="#glyph0-2" x="187.400391" y="225.87793"/>
</g>
<path style="fill:none;stroke-width:1.2;stroke-linecap:butt;stroke-linejoin:miter;stroke:rgb(0%,0%,0%);stroke-opacity:1;stroke-miterlimit:10;" d="M 182.355469 182.964844 L 193.832031 181.605469 "/>
<path style="fill:none;stroke-width:1.2;stroke-linecap:butt;stroke-linejoin:miter;stroke:rgb(100%,0%,0%);stroke-opacity:1;stroke-miterlimit:10;" d="M 193.832031 181.605469 L 205.304688 180.246094 "/>
<path style="fill:none;stroke-width:1.2;stroke-linecap:butt;stroke-linejoin:miter;stroke:rgb(0%,0%,0%);stroke-opacity:1;stroke-miterlimit:10;" d="M 182.355469 182.964844 L 168.527344 164.445312 "/>
<path style="fill:none;stroke-width:1.2;stroke-linecap:butt;stroke-linejoin:miter;stroke:rgb(0%,0%,0%);stroke-opacity:1;stroke-miterlimit:10;" d="M 176.617188 184.363281 L 165.554688 169.550781 "/>
<path style=" stroke:none;fill-rule:nonzero;fill:rgb(100%,100%,100%);fill-opacity:1;" d="M 198.304688 174.746094 L 213.304688 174.746094 L 213.304688 185.746094 L 198.304688 185.746094 Z M 198.304688 174.746094 "/>
<g style="fill:rgb(100%,0%,0%);fill-opacity:1;">
  <use xlink:href="#glyph0-1" x="198.304688" y="183.40918"/>
  <use xlink:href="#glyph0-2" x="205.646484" y="183.40918"/>
</g>
<path style="fill:none;stroke-width:1.2;stroke-linecap:butt;stroke-linejoin:miter;stroke:rgb(0%,0%,0%);stroke-opacity:1;stroke-miterlimit:10;" d="M 90.273438 93.089844 L 94.835938 82.472656 "/>
<path style="fill:none;stroke-width:1.2;stroke-linecap:butt;stroke-linejoin:miter;stroke:rgb(100%,0%,0%);stroke-opacity:1;stroke-miterlimit:10;" d="M 94.835938 82.472656 L 99.398438 71.855469 "/>
<path style="fill:none;stroke-width:1.2;stroke-linecap:butt;stroke-linejoin:miter;stroke:rgb(0%,0%,0%);stroke-opacity:1;stroke-miterlimit:10;" d="M 90.273438 93.089844 L 67.324219 95.804688 "/>
<path style="fill:none;stroke-width:1.2;stroke-linecap:butt;stroke-linejoin:miter;stroke:rgb(0%,0%,0%);stroke-opacity:1;stroke-miterlimit:10;" d="M 88.617188 98.761719 L 70.257812 100.933594 "/>
<path style=" stroke:none;fill-rule:nonzero;fill:rgb(100%,100%,100%);fill-opacity:1;" d="M 92.398438 66.355469 L 107.398438 66.355469 L 107.398438 77.355469 L 92.398438 77.355469 Z M 92.398438 66.355469 "/>
<g style="fill:rgb(100%,0%,0%);fill-opacity:1;">
  <use xlink:href="#glyph0-1" x="92.398438" y="75.018555"/>
  <use xlink:href="#glyph0-2" x="99.740234" y="75.018555"/>
</g>
<path style="fill:none;stroke-width:1.2;stroke-linecap:butt;stroke-linejoin:miter;stroke:rgb(0%,0%,0%);stroke-opacity:1;stroke-miterlimit:10;" d="M 67.324219 95.804688 L 58.199219 117.035156 "/>
<path style="fill:none;stroke-width:1.2;stroke-linecap:butt;stroke-linejoin:miter;stroke:rgb(0%,0%,0%);stroke-opacity:1;stroke-miterlimit:10;" d="M 58.199219 117.035156 L 46.726562 118.394531 "/>
<path style="fill:none;stroke-width:1.2;stroke-linecap:butt;stroke-linejoin:miter;stroke:rgb(100%,0%,0%);stroke-opacity:1;stroke-miterlimit:10;" d="M 46.726562 118.394531 L 35.25 119.753906 "/>
<path style="fill:none;stroke-width:1.2;stroke-linecap:butt;stroke-linejoin:miter;stroke:rgb(0%,0%,0%);stroke-opacity:1;stroke-miterlimit:10;" d="M 58.199219 117.035156 L 72.027344 135.554688 "/>
<path style="fill:none;stroke-width:1.2;stroke-linecap:butt;stroke-linejoin:miter;stroke:rgb(0%,0%,0%);stroke-opacity:1;stroke-miterlimit:10;" d="M 63.941406 115.636719 L 75 130.449219 "/>
<path style=" stroke:none;fill-rule:nonzero;fill:rgb(100%,100%,100%);fill-opacity:1;" d="M 20.25 114.253906 L 35.25 114.253906 L 35.25 125.253906 L 20.25 125.253906 Z M 20.25 114.253906 "/>
<g style="fill:rgb(100%,0%,0%);fill-opacity:1;">
  <use xlink:href="#glyph0-2" x="20.25" y="122.916992"/>
  <use xlink:href="#glyph0-1" x="27.264648" y="122.916992"/>
</g>
</g>
</svg>

<svg xmlns="http://www.w3.org/2000/svg" xmlns:xlink="http://www.w3.org/1999/xlink" width="300pt" height="300pt" viewBox="0 0 300 300"><defs><symbol overflow="visible"><path d="M.453 1.594v-7.938h4.5v7.938zm.5-.5h3.5v-6.938h-3.5zm0 0"/></symbol><symbol overflow="visible" id="a"><path d="M3.547-5.953c-.65 0-1.164.242-1.547.72-.375.48-.563 1.13-.563 1.952 0 .835.188 1.49.563 1.967.383.48.898.72 1.547.72.644 0 1.156-.24 1.53-.72.376-.476.564-1.132.564-1.968 0-.822-.187-1.474-.562-1.954-.375-.477-.887-.72-1.53-.72zm0-.734c.914 0 1.648.312 2.203.937.55.617.828 1.438.828 2.47 0 1.042-.277 1.87-.828 2.483-.555.617-1.29.922-2.203.922-.93 0-1.668-.305-2.22-.922C.774-1.41.5-2.237.5-3.28c0-1.033.273-1.853.828-2.47.55-.625 1.29-.938 2.22-.938zm0 0"/></symbol><symbol overflow="visible" id="b"><path d="M.89-6.563h.876v2.688H5v-2.688h.89V0H5v-3.125H1.766V0H.89zm0 0"/></symbol></defs><g><path fill="#fff" d="M0 0h300v300H0z"/><path d="M108.8 151.36l-6.91-9.262" stroke-width="1.2" stroke="#f00" stroke-miterlimit="10" fill="none"/><path d="M101.89 142.098l-6.913-9.258M131.754 148.64L120.277 150" stroke-width="1.2" stroke="#000" stroke-miterlimit="10" fill="none"/><path d="M120.277 150l-11.476 1.36" stroke-width="1.2" stroke="#f00" stroke-miterlimit="10" fill="none"/><path d="M104.8 145.86h8v11h-8zm0 0" fill="#fff"/><use xlink:href="#a" x="104.801" y="154.522" fill="#f00"/><path d="M94.977 132.84l9.125-21.235M90.895 128.57l7.296-16.988M72.027 135.555l22.95-2.715M104.102 111.605l22.95-2.714M104.102 111.605L90.272 93.09M127.05 108.89l13.825 18.52M140.875 127.41l11.477-1.36" stroke-width="1.2" stroke="#000" stroke-miterlimit="10" fill="none"/><path d="M152.352 126.05l11.476-1.355" stroke-width="1.2" stroke="#f00" stroke-miterlimit="10" fill="none"/><path d="M140.875 127.41l-9.12 21.23" stroke-width="1.2" stroke="#000" stroke-miterlimit="10" fill="none"/><path d="M163.828 124.695l4.56-10.617" stroke-width="1.2" stroke="#f00" stroke-miterlimit="10" fill="none"/><path d="M168.387 114.078l4.562-10.617" stroke-width="1.2" stroke="#000" stroke-miterlimit="10" fill="none"/><path d="M159.828 119.195h8v11h-8zm0 0" fill="#fff"/><use xlink:href="#a" x="159.828" y="127.858" fill="#f00"/><path d="M175.13 101.836l-6.915-9.258" stroke-width="1.2" stroke="#000" stroke-miterlimit="10" fill="none"/><path d="M168.215 92.578l-6.914-9.262" stroke-width="1.2" stroke="#f00" stroke-miterlimit="10" fill="none"/><path d="M170.77 105.09l-6.91-9.262" stroke-width="1.2" stroke="#000" stroke-miterlimit="10" fill="none"/><path d="M163.86 95.828l-6.915-9.258" stroke-width="1.2" stroke="#f00" stroke-miterlimit="10" fill="none"/><path d="M172.95 103.46l22.948-2.714" stroke-width="1.2" stroke="#000" stroke-miterlimit="10" fill="none"/><path d="M151.125 79.445h8v11h-8zm0 0" fill="#fff"/><use xlink:href="#a" x="151.125" y="88.108" fill="#f00"/><path d="M195.898 100.746l9.125-21.23M201.81 100.77l7.295-16.985M209.727 119.266l-13.83-18.52M205.023 79.516l22.95-2.72M227.973 76.797l13.828 18.52M225 81.902l11.06 14.817M241.8 95.316l11.473-1.355" stroke-width="1.2" stroke="#000" stroke-miterlimit="10" fill="none"/><path d="M253.273 93.96l11.477-1.358" stroke-width="1.2" stroke="#f00" stroke-miterlimit="10" fill="none"/><path d="M241.8 95.316l-9.124 21.235" stroke-width="1.2" stroke="#000" stroke-miterlimit="10" fill="none"/><path d="M257.75 87.102h15v11h-15zm0 0" fill="#fff"/><g fill="#f00"><use xlink:href="#a" x="257.75" y="95.765"/><use xlink:href="#b" x="265.092" y="95.765"/></g><path d="M232.676 116.55l6.914 9.26" stroke-width="1.2" stroke="#000" stroke-miterlimit="10" fill="none"/><path d="M239.59 125.81l6.914 9.256" stroke-width="1.2" stroke="#f00" stroke-miterlimit="10" fill="none"/><path d="M232.676 116.55l-22.95 2.716M229.742 111.422l-18.36 2.172" stroke-width="1.2" stroke="#000" stroke-miterlimit="10" fill="none"/><path d="M239.504 129.566h15v11h-15zm0 0" fill="#fff"/><g fill="#f00"><use xlink:href="#a" x="239.504" y="138.229"/><use xlink:href="#b" x="246.846" y="138.229"/></g><path d="M209.727 119.266l-4.563 10.617" stroke-width="1.2" stroke="#000" stroke-miterlimit="10" fill="none"/><path d="M205.164 129.883l-4.562 10.613" stroke-width="1.2" stroke="#f00" stroke-miterlimit="10" fill="none"/><path d="M185.602 134.996h15v11h-15zm0 0" fill="#fff"/><g fill="#f00"><use xlink:href="#b" x="185.602" y="143.659"/><use xlink:href="#a" x="192.616" y="143.659"/></g><path d="M131.754 148.64l13.824 18.52M145.578 167.16l-9.12 21.235M149.664 171.43l-7.3 16.988M168.527 164.445l-22.95 2.715M136.457 188.395l13.824 18.515M150.28 206.91l-4.56 10.617" stroke-width="1.2" stroke="#000" stroke-miterlimit="10" fill="none"/><path d="M145.72 217.527l-4.564 10.618" stroke-width="1.2" stroke="#f00" stroke-miterlimit="10" fill="none"/><path d="M150.28 206.91l22.95-2.715M151.938 201.238l18.36-2.172" stroke-width="1.2" stroke="#000" stroke-miterlimit="10" fill="none"/><path d="M126.156 222.645h15v11h-15zm0 0" fill="#fff"/><g fill="#f00"><use xlink:href="#b" x="126.156" y="231.308"/><use xlink:href="#a" x="133.171" y="231.308"/></g><path d="M173.23 204.195l6.915 9.258" stroke-width="1.2" stroke="#000" stroke-miterlimit="10" fill="none"/><path d="M180.145 213.453l6.914 9.262" stroke-width="1.2" stroke="#f00" stroke-miterlimit="10" fill="none"/><path d="M173.23 204.195l9.125-21.23" stroke-width="1.2" stroke="#000" stroke-miterlimit="10" fill="none"/><path d="M180.06 217.215h15v11h-15zm0 0" fill="#fff"/><g fill="#f00"><use xlink:href="#a" x="180.059" y="225.878"/><use xlink:href="#b" x="187.4" y="225.878"/></g><path d="M182.355 182.965l11.477-1.36" stroke-width="1.2" stroke="#000" stroke-miterlimit="10" fill="none"/><path d="M193.832 181.605l11.473-1.36" stroke-width="1.2" stroke="#f00" stroke-miterlimit="10" fill="none"/><path d="M182.355 182.965l-13.828-18.52M176.617 184.363l-11.062-14.812" stroke-width="1.2" stroke="#000" stroke-miterlimit="10" fill="none"/><path d="M198.305 174.746h15v11h-15zm0 0" fill="#fff"/><g fill="#f00"><use xlink:href="#a" x="198.305" y="183.409"/><use xlink:href="#b" x="205.646" y="183.409"/></g><path d="M90.273 93.09l4.563-10.617" stroke-width="1.2" stroke="#000" stroke-miterlimit="10" fill="none"/><path d="M94.836 82.473l4.562-10.618" stroke-width="1.2" stroke="#f00" stroke-miterlimit="10" fill="none"/><path d="M90.273 93.09l-22.95 2.715M88.617 98.762l-18.36 2.172" stroke-width="1.2" stroke="#000" stroke-miterlimit="10" fill="none"/><path d="M92.398 66.355h15v11h-15zm0 0" fill="#fff"/><g fill="#f00"><use xlink:href="#a" x="92.398" y="75.019"/><use xlink:href="#b" x="99.74" y="75.019"/></g><path d="M67.324 95.805l-9.125 21.23M58.2 117.035l-11.473 1.36" stroke-width="1.2" stroke="#000" stroke-miterlimit="10" fill="none"/><path d="M46.727 118.395l-11.477 1.36" stroke-width="1.2" stroke="#f00" stroke-miterlimit="10" fill="none"/><path d="M58.2 117.035l13.827 18.52M63.94 115.637L75 130.45" stroke-width="1.2" stroke="#000" stroke-miterlimit="10" fill="none"/><path d="M20.25 114.254h15v11h-15zm0 0" fill="#fff"/><g fill="#f00"><use xlink:href="#b" x="20.25" y="122.917"/><use xlink:href="#a" x="27.265" y="122.917"/></g></g></svg>
